svg/l/NF.svg

<svg width="32" height="24" viewBox="0 0 32 24" fill="none" xmlns="http://www.w3.org/2000/svg">
<mask id="mask0" mask-type="alpha" maskUnits="userSpaceOnUse" x="0" y="0" width="32" height="24">
<rect width="32" height="24" fill="white"/>
</mask>
<g mask="url(#mask0)">
<path fill-rule="evenodd" clip-rule="evenodd" d="M22 0H32V24H22V0Z" fill="#409100"/>
<path fill-rule="evenodd" clip-rule="evenodd" d="M0 0H10V24H0V0Z" fill="#409100"/>
<path fill-rule="evenodd" clip-rule="evenodd" d="M10 0H22V24H10V0Z" fill="white"/>
<path fill-rule="evenodd" clip-rule="evenodd" d="M12.6954 18.7705C11.1397 19.0236 10.6492 18.2643 10.6492 18.2643L10.8451 18.1034C10.9767 17.9953 11.4199 18.0324 11.8504 18.0684C12.0608 18.0861 12.2683 18.1034 12.4347 18.1034C12.6775 18.1034 12.9569 18.0668 13.248 18.0286C13.5645 17.9871 13.8948 17.9438 14.2069 17.9438C14.806 17.9438 12.4347 17.1604 11.9279 17.6409C11.4212 18.1214 10 17.4182 10 17.0172C10 16.7436 10.5232 16.8434 11.0004 16.9344C11.2226 16.9768 11.4348 17.0172 11.5797 17.0172C12.0355 17.0172 11.1238 16.128 10.6492 16.128C10.1747 16.128 11.1238 15.9214 11.5797 15.9214C11.8392 15.9214 12.0804 15.9884 12.2882 16.0461C12.4452 16.0897 12.5831 16.128 12.6954 16.128C12.956 16.128 11.3865 15.4533 11.1238 15.4533H12.4347C12.8846 15.4533 12.9939 15.5168 13.0974 15.5768C13.1907 15.631 13.2793 15.6824 13.6078 15.6824C14.3012 15.6824 13.9215 15.3031 13.9215 15.3031C13.9215 15.3031 11.5797 15.06 11.1238 14.7242C10.8156 14.4971 11.6427 14.5771 12.4246 14.6527L12.4246 14.6527C12.799 14.6889 13.163 14.7242 13.3869 14.7242C14.0785 14.7242 11.9279 14.2305 11.5797 14.2305H13.1645C13.5115 14.2305 13.8924 14.3421 14.292 14.4591L14.292 14.4591C14.733 14.5883 15.1968 14.7242 15.6631 14.7242C16.1546 14.7242 15.1946 14.4309 14.1401 14.1089L14.1401 14.1088C13.2879 13.8486 12.374 13.5694 12.1144 13.4109C11.8457 13.2468 12.0501 13.3104 12.4223 13.4261C12.855 13.5606 13.5146 13.7656 13.9215 13.7656C14.6785 13.7656 12.9144 13.023 12.4347 13.023C11.955 13.023 11.4958 12.8071 11.9279 12.6075C12.1933 12.485 12.8843 12.6695 13.4862 12.8303C13.8646 12.9313 14.2078 13.023 14.3877 13.023C14.6059 13.023 14.7672 13.1079 14.9389 13.1983C15.134 13.3011 15.3425 13.4109 15.6631 13.4109C16.2656 13.4109 14.3877 12.6075 13.6078 12.6075C12.8279 12.6075 12.6954 12.2291 13.1645 12.2291C13.6337 12.2291 12.1144 11.5845 12.1144 11.5845C12.1144 11.5845 11.8941 11.1274 12.4347 11.1274H13.1645C13.4146 11.1274 12.9144 10.3345 12.4347 10.3345C11.955 10.3345 12.3734 10.0949 13.1645 10.0949C13.6456 10.0949 13.9271 10.261 14.2657 10.4608C14.484 10.5895 14.726 10.7323 15.0606 10.8537C15.9142 11.1634 15.2703 10.3345 15.0606 10.3345C14.8508 10.3345 12.6954 9.65881 12.6954 9.65881C12.6954 9.65881 12.9144 9.40993 12.6954 9.07103C12.5301 8.81528 13.218 8.94552 13.6368 9.02484C13.773 9.05062 13.8808 9.07103 13.9215 9.07103C14.0207 9.07103 14.3054 9.1418 14.6551 9.22871L14.6552 9.22871C14.8912 9.28736 15.1567 9.35337 15.4148 9.40993C16.0552 9.5503 13.2393 8.37586 12.9144 8.37586C12.5895 8.37586 13.6078 8.18287 14.2069 8.18287C14.5015 8.18287 14.6436 8.22952 14.788 8.27695C14.9374 8.32599 15.0892 8.37586 15.4148 8.37586C16.0552 8.37586 14.2069 7.68942 13.6078 7.68942C13.0087 7.68942 13.3629 7.09835 13.6078 7.09835C13.7032 7.09835 13.9445 7.13006 14.2392 7.16879L14.2392 7.16879L14.2392 7.16879H14.2392L14.2392 7.1688L14.2392 7.1688L14.2393 7.1688C14.7015 7.22955 15.2952 7.30756 15.6631 7.30756C15.9432 7.30756 15.6872 7.22908 15.3149 7.11492L15.3149 7.11491L15.3148 7.11491C14.8863 6.98352 14.3037 6.80486 14.2069 6.64425C14.1002 6.46698 14.3174 6.4991 14.6963 6.55511L14.6963 6.55511C14.7648 6.56524 14.8385 6.57614 14.9166 6.58673C15.1749 6.72208 15.3907 6.8095 15.4222 6.70627C15.4313 6.67658 15.4516 6.65535 15.4774 6.64009C15.5384 6.64276 15.6004 6.64425 15.6631 6.64425C16.0202 6.64425 15.8552 6.58982 15.5114 6.52471L15.4806 6.51529C14.9591 6.35585 13.8305 6.01498 14.2527 6.22533C14.3354 6.26653 14.4283 6.31736 14.5247 6.37105C14.2402 6.33333 14.001 6.3072 13.9215 6.3072C13.6361 6.3072 13.3499 6.08668 13.9215 6.08668H15.0606C14.7063 6.08668 14.2069 6.08668 14.2069 5.8084C14.2069 5.61901 14.6024 5.68742 14.9666 5.75044C15.1376 5.78001 15.3016 5.8084 15.4148 5.8084C15.769 5.8084 15.8571 5.8084 15.6631 5.64286C15.4788 5.48567 14.8432 5.48644 14.4485 5.48692L14.3877 5.48697C14.0011 5.48697 15.2075 5.28494 15.6631 5.28494C15.7396 5.28494 15.7734 5.28494 15.7735 5.2835C15.7735 5.28235 15.7525 5.28031 15.7148 5.27664C15.5166 5.25737 14.8581 5.19333 14.3877 4.98057C13.967 4.79023 14.3356 4.83794 14.8181 4.90042C15.1073 4.93784 15.4373 4.98057 15.6631 4.98057C16.2656 4.98057 15.4148 4.57539 14.7743 4.57539C14.2603 4.57539 14.5052 4.43497 14.8231 4.25276L14.8231 4.25276C14.9012 4.20796 14.9838 4.16063 15.0606 4.11225C15.2917 3.96659 15.4608 4.21508 15.5601 4.36088C15.6279 4.4605 15.6631 4.51218 15.6631 4.35743C15.6631 4.20639 15.6241 4.11054 15.5925 4.06017C15.6094 4.07436 15.6324 4.09182 15.6631 4.11225C15.9113 4.2779 15.6631 3.67768 15.6631 3.67768C15.6631 3.67768 15.4148 3.51192 15.6631 3.51192C15.9113 3.51192 15.5832 3.22697 15.4148 3.22697C15.2464 3.22697 15.8571 2.95435 15.8571 2.95435L15.9917 1.80005C15.9917 1.80005 16.3246 3.05783 16.3246 3.22697V4.11225C16.3246 4.323 16.1756 4.47005 16.0759 4.56844C15.9509 4.69182 15.9035 4.73867 16.3246 4.73867C17.0816 4.73867 17.0494 4.98057 16.5886 4.98057C16.1278 4.98057 16.7209 5.28494 17.5483 5.28494C18.3756 5.28494 16.8544 5.64286 16.3246 5.64286C15.7948 5.64286 16.8544 5.8084 17.5483 5.8084C18.0168 5.8084 17.5362 5.97033 17.0928 6.11974C16.8796 6.19159 16.6749 6.26055 16.5886 6.3072C16.451 6.38152 16.7901 6.37894 17.1494 6.35913C16.9606 6.41477 16.7731 6.47179 16.6308 6.51529C16.4582 6.56806 16.3998 6.5859 16.4011 6.59308C16.4018 6.59674 16.418 6.59763 16.4425 6.59896C16.515 6.6029 16.66 6.61078 16.6892 6.70627C16.7327 6.84878 17.1274 6.62794 17.5004 6.41927C17.5601 6.38584 17.6193 6.35273 17.6764 6.32147C17.7744 6.31317 17.8374 6.3072 17.8374 6.3072C17.8374 6.3072 18.1803 6.70282 18.1803 6.94441C18.1803 7.08532 17.7293 7.12684 17.2482 7.17113L17.1997 7.1756C17.2239 7.14384 17.1216 7.16047 16.9713 7.19762C16.7218 7.22329 16.4862 7.25507 16.3246 7.30756C16.1703 7.3577 16.1963 7.37863 16.3218 7.38311L16.2877 7.39352C16.1695 7.42965 16.129 7.44204 16.1299 7.44916C16.1304 7.45288 16.1421 7.45516 16.1601 7.45864H16.1601C16.2123 7.46876 16.3169 7.48901 16.3461 7.5845C16.3896 7.72701 16.6532 7.54626 16.9023 7.37546L16.9258 7.35932C17.0038 7.35428 17.0836 7.34889 17.1625 7.34355L17.1627 7.34354L17.1627 7.34353C17.4338 7.3252 17.6945 7.30756 17.8374 7.30756C18.284 7.30756 17.3909 7.52285 17.0494 7.52285C16.9041 7.52285 17.0872 7.55576 17.3664 7.60596C17.7435 7.67373 18.2959 7.77301 18.4519 7.86535C18.6384 7.9757 18.0907 7.93451 17.6034 7.89786L17.6034 7.89785C17.381 7.88113 17.1711 7.86535 17.0494 7.86535C16.6608 7.86535 16.5886 8.18287 16.8544 8.18287H17.8374C18.2092 8.18287 18.5963 8.75165 18.4519 8.75165C18.4082 8.75165 18.3145 8.78096 18.1838 8.82183C17.8833 8.91585 17.3872 9.07103 16.8544 9.07103C16.0901 9.07103 17.8374 9.07185 18.1803 9.07103C18.5232 9.0702 19.5014 9.07185 19.5014 9.40993C19.5014 9.62023 19.3162 9.66643 19.0735 9.72697C18.9261 9.76375 18.7575 9.80582 18.5963 9.89321C18.1698 10.1244 19.8718 10.3345 19.8718 10.3345C19.8718 10.3345 19.1982 10.544 18.8703 10.544C18.5425 10.544 19.0228 10.8537 19.8718 10.8537C20.5287 10.8537 20.3358 11.2106 20.2149 11.4345L20.2149 11.4345C20.1795 11.5 20.1503 11.5541 20.1503 11.5845C20.1503 11.6434 20.026 11.6942 19.8461 11.7677C19.6149 11.8622 19.2919 11.9942 19.0228 12.2291C18.7132 12.4994 19.0894 12.4199 19.5144 12.3302L19.5144 12.3302C19.7463 12.2812 19.9927 12.2291 20.1503 12.2291C20.5965 12.2291 20.7866 12.2477 20.6413 12.4642C20.496 12.6806 19.1982 13.023 18.8703 13.023H20.6413C21.1323 13.023 20.5038 13.4109 19.8718 13.4109C19.448 13.4109 19.2108 13.5704 19.0545 13.6755C18.9778 13.7271 18.9205 13.7656 18.8703 13.7656H20.1503C20.2155 13.7656 20.2872 13.6614 20.3529 13.5659C20.4106 13.4819 20.4637 13.4046 20.5038 13.4109C21.0828 13.5018 20.823 14.2305 20.5038 14.2305C20.1374 14.2305 19.0228 14.4762 19.1982 14.7242C19.283 14.8442 19.4156 14.7899 19.6306 14.702C19.8598 14.6083 20.1827 14.4762 20.6413 14.4762C21.53 14.4762 20.7268 14.7242 20.5038 14.7242C20.2807 14.7242 19.3372 14.9043 19.0228 15.06C18.8129 15.1639 19.5432 15.1291 20.2696 15.0944C20.6314 15.0772 20.9921 15.06 21.2353 15.06C21.9669 15.06 19.5014 15.6824 18.5963 15.6824C17.6912 15.6824 19.1982 15.9214 19.5014 15.9214C19.6177 15.9214 19.8433 15.9518 20.1215 15.9893L20.1215 15.9893H20.1215C20.5686 16.0495 21.1512 16.128 21.6338 16.128C22.4167 16.128 20.8509 16.6437 20.1503 16.6437C20.096 16.6437 20.0425 16.6435 19.9901 16.6433C19.3654 16.6407 18.8957 16.6388 19.1982 17.0172C19.3663 17.2277 19.926 17.1704 20.5101 17.1106C21.0646 17.0538 21.6411 16.9948 21.9257 17.1604C22.4371 17.4579 20.1745 17.4322 19.1983 17.4211H19.1983H19.1983C19.0587 17.4195 18.9454 17.4182 18.8703 17.4182C18.2701 17.4182 19.4706 17.6409 20.5038 17.6409L20.6341 17.6408C21.5573 17.6402 21.7761 17.6401 21.7761 17.9438C21.7761 18.2107 19.7651 18.1417 18.9257 18.1129C18.7665 18.1074 18.6494 18.1034 18.5963 18.1034C18.4355 18.1034 18.3423 18.2006 18.2459 18.3011C18.1426 18.4089 18.0355 18.5205 17.8374 18.5205C17.6743 18.5205 17.5977 18.4161 17.5279 18.321C17.4338 18.1928 17.3519 18.0813 17.0875 18.2643C16.6267 18.5832 17.5483 21.8 17.5483 21.8H15.0606V18.7705C15.0606 18.7705 14.251 18.5174 12.6954 18.7705ZM15.5534 4.01651C15.5499 4.01724 15.5595 4.03251 15.5925 4.06017C15.5733 4.02962 15.5568 4.01579 15.5534 4.01651ZM14.6878 16.0237C14.2948 15.8757 15.2908 15.8681 15.7516 15.8681C15.9002 15.8681 15.9529 15.8681 15.9562 15.8809C15.958 15.8879 15.9449 15.8988 15.9244 15.9156C15.8668 15.9632 15.7516 16.0582 15.7516 16.2483C15.7516 16.532 15.3782 16.3497 15.0253 16.1773L15.0253 16.1773L15.0253 16.1773L15.0252 16.1773C14.9052 16.1187 14.7876 16.0613 14.6878 16.0237ZM15.5022 14.8657C15.0415 14.8657 14.0454 14.8733 14.4385 15.0213C14.5382 15.0588 14.6558 15.1163 14.7759 15.1749L14.7759 15.1749L14.7759 15.1749L14.7759 15.1749C15.1288 15.3472 15.5022 15.5296 15.5022 15.2459C15.5022 15.0558 15.6174 14.9607 15.675 14.9132C15.6955 14.8963 15.7087 14.8855 15.7069 14.8784C15.7036 14.8657 15.6508 14.8657 15.5022 14.8657ZM14.6713 14.1956C14.3504 14.1179 15.1636 14.1139 15.5398 14.1139C15.6634 14.1139 15.7058 14.1139 15.707 14.121C15.7076 14.1246 15.697 14.1303 15.6809 14.1388C15.6339 14.1638 15.5398 14.2137 15.5398 14.3136C15.5398 14.4626 15.2349 14.3668 14.9468 14.2763C14.8488 14.2455 14.7528 14.2153 14.6713 14.1956ZM15.4806 11.0262C14.9591 10.8668 13.8305 10.5259 14.2527 10.7362C14.3599 10.7896 14.4842 10.8592 14.611 10.9302C14.984 11.1389 15.3787 11.3597 15.4222 11.2172C15.4514 11.1217 15.5964 11.1138 15.6689 11.1099C15.6934 11.1085 15.7096 11.1077 15.7103 11.104C15.7116 11.0968 15.6532 11.079 15.4806 11.0262ZM14.2527 9.73382C13.8305 9.52347 14.9591 9.86434 15.4806 10.0238C15.6532 10.0766 15.7116 10.0944 15.7103 10.1016C15.7096 10.1052 15.6934 10.1061 15.6689 10.1075C15.5964 10.1114 15.4514 10.1193 15.4222 10.2148C15.3787 10.3573 14.984 10.1364 14.611 9.92776L14.611 9.92776C14.4842 9.85678 14.3598 9.78721 14.2527 9.73382ZM15.4806 8.77076C14.9591 8.61131 13.8305 8.27044 14.2527 8.48079C14.3599 8.53418 14.4842 8.60375 14.611 8.67473C14.984 8.8834 15.3787 9.10424 15.4222 8.96173C15.4514 8.86624 15.5964 8.85836 15.6689 8.85442C15.6934 8.85309 15.7096 8.8522 15.7103 8.84854C15.7116 8.84136 15.6532 8.82352 15.4806 8.77076ZM16.6092 15.6175C17.0699 15.6175 18.066 15.6251 17.6729 15.7731C17.5732 15.8106 17.4555 15.8681 17.3355 15.9267L17.3355 15.9267L17.3355 15.9267C16.9826 16.0991 16.6092 16.2814 16.6092 15.9977C16.6092 15.8076 16.494 15.7126 16.4364 15.665C16.4159 15.6482 16.4027 15.6373 16.4045 15.6303C16.4078 15.6175 16.4606 15.6175 16.6092 15.6175ZM17.6729 15.0213C18.066 14.8733 17.0699 14.8657 16.6092 14.8657C16.4606 14.8657 16.4078 14.8657 16.4045 14.8784C16.4027 14.8855 16.4159 14.8963 16.4364 14.9132C16.494 14.9607 16.6092 15.0558 16.6092 15.2459C16.6092 15.5296 16.9826 15.3472 17.3355 15.1749L17.3355 15.1749L17.3355 15.1749L17.3355 15.1749C17.4556 15.1163 17.5732 15.0588 17.6729 15.0213ZM18.2894 13.2878L18.2895 13.2878C18.3305 13.2783 18.3319 13.2779 18.2784 13.2909C18.1724 13.3166 17.9505 13.4039 17.7006 13.5021L17.7006 13.5021L17.7006 13.5021C17.1935 13.7016 16.5716 13.9461 16.5716 13.8124C16.5716 13.7125 16.4775 13.6626 16.4305 13.6376C16.4144 13.6291 16.4038 13.6234 16.4044 13.6197C16.4056 13.6127 16.448 13.6127 16.5716 13.6127C16.885 13.6127 18.084 13.3353 18.2894 13.2878ZM17.8587 10.235C18.2809 10.0247 17.1523 10.3656 16.6308 10.525C16.4582 10.5778 16.3998 10.5956 16.4011 10.6028C16.4018 10.6065 16.418 10.6073 16.4425 10.6087C16.515 10.6126 16.66 10.6205 16.6892 10.716C16.7327 10.8585 17.1274 10.6377 17.5004 10.429C17.6272 10.358 17.7515 10.2884 17.8587 10.235ZM16.6308 11.5274C17.1523 11.368 18.2809 11.0271 17.8587 11.2375C17.7515 11.2909 17.6272 11.3604 17.5004 11.4314C17.1274 11.6401 16.7327 11.8609 16.6892 11.7184C16.66 11.6229 16.515 11.615 16.4425 11.6111C16.418 11.6098 16.4018 11.6089 16.4011 11.6052C16.3998 11.598 16.4582 11.5802 16.6308 11.5274ZM17.8587 9.23261C18.2809 9.02226 17.1523 9.36313 16.6308 9.52258C16.4582 9.57534 16.3998 9.59318 16.4011 9.60036C16.4018 9.60403 16.418 9.60491 16.4425 9.60624C16.515 9.61018 16.66 9.61806 16.6892 9.71355C16.7327 9.85606 17.1274 9.63522 17.5003 9.42655C17.6272 9.35557 17.7515 9.286 17.8587 9.23261ZM16.2877 8.64656C16.6474 8.53657 17.4263 8.30263 17.1421 8.47078C17.07 8.51346 16.987 8.5704 16.9023 8.6285C16.6532 8.79929 16.3896 8.98004 16.3461 8.83753C16.3169 8.74204 16.2123 8.7218 16.1601 8.71167H16.1601C16.1421 8.7082 16.1304 8.70592 16.1299 8.7022C16.129 8.69508 16.1695 8.68268 16.2877 8.64656ZM16.5172 12.4605C16.1041 12.4605 16.5172 12.134 16.5172 12.134H16.7299C16.8029 12.134 16.8681 12.104 16.9538 12.0645C17.1176 11.9889 17.3562 11.8789 17.8673 11.8789C18.6456 11.8789 16.9303 12.4605 16.5172 12.4605Z" fill="#409100"/>
</g>
</svg>

<svg width="32" height="24" fill="none" xmlns="http://www.w3.org/2000/svg">
  <mask id="a" maskUnits="userSpaceOnUse" x="0" y="0" width="32" height="24">
    <path fill="#fff" d="M0 0h32v24H0z"/>
  </mask>
  <g mask="url(#a)" fill-rule="evenodd" clip-rule="evenodd">
    <path d="M22 0h10v24H22V0zM0 0h10v24H0V0z" fill="#409100"/>
    <path d="M10 0h12v24H10V0z" fill="#fff"/>
    <path d="M12.695 18.77c-1.555.254-2.046-.506-2.046-.506l.196-.16c.132-.109.575-.072 1.005-.036.21.018.418.035.585.035.242 0 .522-.036.813-.074a7.55 7.55 0 01.959-.085c.599 0-1.772-.784-2.28-.303-.506.48-1.927-.223-1.927-.624 0-.273.523-.174 1-.083.223.043.435.083.58.083.456 0-.456-.89-.93-.89-.475 0 .474-.206.93-.206.26 0 .5.067.708.125.157.044.295.082.407.082.261 0-1.309-.675-1.571-.675h1.31c.45 0 .56.064.663.124.094.054.182.105.51.105.694 0 .315-.379.315-.379s-2.342-.243-2.798-.579c-.308-.227.519-.147 1.3-.071.375.036.739.071.963.071.691 0-1.46-.494-1.807-.494h1.585c.347 0 .727.112 1.127.23.441.128.905.264 1.371.264.492 0-.468-.293-1.523-.615-.852-.26-1.766-.54-2.026-.698-.268-.164-.064-.1.308.015.433.134 1.093.34 1.5.34.756 0-1.008-.743-1.487-.743-.48 0-.94-.216-.507-.416.265-.122.956.063 1.558.223.379.101.722.193.902.193.218 0 .38.085.55.175.196.103.404.213.725.213.603 0-1.275-.804-2.055-.804-.78 0-.913-.378-.444-.378.47 0-1.05-.644-1.05-.644s-.22-.458.32-.458h.73c.25 0-.25-.793-.73-.793-.479 0-.06-.24.73-.24.482 0 .763.167 1.102.367.218.128.46.271.795.393.853.31.21-.52 0-.52s-2.366-.675-2.366-.675.22-.25 0-.588c-.165-.256.523-.126.942-.046.136.026.244.046.284.046.1 0 .384.07.734.158.236.058.502.124.76.18.64.141-2.176-1.033-2.5-1.033-.325 0 .693-.193 1.292-.193.294 0 .437.046.581.094.15.049.301.099.627.099.64 0-1.208-.687-1.807-.687-.6 0-.245-.59 0-.59.095 0 .336.031.631.07.462.06 1.056.139 1.424.139.28 0 .024-.079-.348-.193-.429-.132-1.011-.31-1.108-.47-.107-.178.11-.146.49-.09l.22.032c.258.135.474.222.505.12.01-.03.03-.052.055-.067.061.003.123.004.186.004.357 0 .192-.054-.152-.12l-.03-.009c-.522-.16-1.65-.5-1.228-.29.082.041.175.092.272.146a7.193 7.193 0 00-.604-.064c-.285 0-.571-.22 0-.22h1.14c-.355 0-.854 0-.854-.279 0-.189.395-.12.76-.058.17.03.335.058.448.058.354 0 .442 0 .248-.165-.184-.157-.82-.157-1.215-.156h-.06c-.387 0 .82-.202 1.275-.202.077 0 .11 0 .11-.002l-.058-.006c-.198-.02-.857-.084-1.327-.296-.421-.19-.052-.143.43-.08.29.037.62.08.845.08.603 0-.248-.406-.889-.406-.514 0-.269-.14.05-.322.077-.045.16-.092.237-.14.23-.146.4.102.5.248.067.1.102.151.102-.004a.559.559 0 00-.07-.297c.016.014.04.032.07.052.248.166 0-.434 0-.434s-.248-.166 0-.166-.08-.285-.248-.285c-.169 0 .442-.273.442-.273l.135-1.154s.333 1.258.333 1.427v.885c0 .21-.15.358-.25.456-.124.124-.171.17.25.17.757 0 .724.243.264.243-.461 0 .132.304.96.304.827 0-.695.358-1.224.358-.53 0 .53.165 1.223.165.469 0-.012.162-.455.312-.213.072-.418.14-.504.187-.138.074.201.072.56.052l-.518.156c-.173.053-.231.07-.23.078 0 .004.017.005.041.006.073.004.218.012.247.107.044.143.438-.078.811-.287l.176-.098.161-.014s.343.396.343.637c0 .141-.45.183-.932.227l-.048.005c.024-.032-.078-.016-.229.022a3.46 3.46 0 00-.646.11c-.155.05-.129.07-.003.075l-.034.01c-.119.037-.159.049-.158.056 0 .004.012.006.03.01.052.01.157.03.186.125.044.143.307-.038.556-.209l.024-.016.237-.016c.27-.018.532-.035.674-.035.447 0-.446.215-.788.215-.145 0 .038.033.317.083.378.068.93.167 1.086.26.186.11-.361.068-.849.032a9.143 9.143 0 00-.554-.033c-.388 0-.46.318-.195.318h.983c.372 0 .76.569.615.569-.044 0-.138.029-.268.07-.3.094-.797.249-1.33.249h1.326c.343 0 1.321 0 1.321.339 0 .21-.185.256-.428.317a1.972 1.972 0 00-.477.166c-.426.231 1.276.441 1.276.441s-.674.21-1.002.21c-.328 0 .153.31 1.002.31.657 0 .464.357.343.58a.459.459 0 00-.065.15c0 .06-.124.11-.304.184-.231.094-.554.226-.823.461-.31.27.066.19.491.101.232-.049.479-.1.636-.1.447 0 .637.018.491.234-.145.216-1.443.559-1.77.559h1.77c.491 0-.137.388-.77.388-.423 0-.66.16-.816.264-.077.052-.134.09-.185.09h1.28c.066 0 .137-.104.203-.2.058-.083.11-.16.15-.154.58.09.32.82 0 .82-.366 0-1.48.245-1.305.493.085.12.218.066.433-.022.229-.094.552-.226 1.01-.226.889 0 .086.248-.137.248s-1.167.18-1.481.336c-.21.104.52.069 1.247.034.361-.017.722-.034.965-.034.732 0-1.734.622-2.639.622-.905 0 .602.24.905.24.117 0 .342.03.62.067.448.06 1.03.139 1.513.139.783 0-.783.516-1.484.516h-.16c-.625-.003-1.094-.005-.792.373.168.21.728.153 1.312.093.555-.056 1.131-.115 1.416.05.511.298-1.752.272-2.728.261l-.328-.003c-.6 0 .6.223 1.634.223h.13c.923 0 1.142-.001 1.142.303 0 .267-2.01.198-2.85.169-.16-.006-.277-.01-.33-.01-.16 0-.254.098-.35.198-.103.108-.21.22-.409.22-.163 0-.24-.105-.31-.2-.093-.128-.175-.24-.44-.057-.46.32.461 3.536.461 3.536h-2.487v-3.03s-.81-.253-2.366 0zm2.858-14.754c-.003.001.006.016.04.044-.02-.03-.036-.044-.04-.044zm-.865 12.008c-.393-.148.603-.156 1.064-.156.148 0 .2 0 .204.013.002.007-.011.018-.032.035a.409.409 0 00-.172.332c0 .284-.374.102-.727-.07a4.253 4.253 0 00-.337-.154zm.814-1.158c-.46 0-1.457.007-1.064.155.1.038.218.095.338.154.353.172.726.355.726.07 0-.19.115-.284.173-.332.02-.017.034-.028.032-.035-.003-.012-.056-.012-.205-.012zm-.83-.67c-.322-.078.492-.082.868-.082.123 0 .166 0 .167.007 0 .004-.01.01-.026.018-.047.025-.141.075-.141.175 0 .149-.305.053-.593-.038a4.632 4.632 0 00-.276-.08zm.809-3.17c-.522-.16-1.65-.5-1.228-.29.107.054.231.123.358.194.373.209.768.43.811.287.03-.095.174-.103.247-.107.024-.002.04-.002.041-.006.002-.007-.057-.025-.23-.078zm-1.228-1.292c-.422-.21.706.13 1.228.29.172.053.23.07.23.078-.001.003-.018.004-.042.005-.073.004-.218.012-.247.108-.043.142-.438-.079-.811-.287a9.064 9.064 0 00-.358-.194zm1.228-.963c-.522-.16-1.65-.5-1.228-.29.107.053.231.123.358.194.373.208.768.43.811.287.03-.096.174-.104.247-.108.024-.001.04-.002.041-.006.002-.007-.057-.025-.23-.077zm1.128 6.846c.46 0 1.457.008 1.064.156a4.27 4.27 0 00-.337.154c-.353.172-.727.354-.727.07a.409.409 0 00-.173-.332c-.02-.017-.033-.028-.032-.035.004-.013.057-.013.205-.013zm1.064-.596c.393-.148-.603-.155-1.064-.155-.148 0-.201 0-.205.012-.001.007.012.018.032.035a.408.408 0 01.173.333c0 .284.374.101.726-.071a4.24 4.24 0 01.338-.154zm.616-1.733a.448.448 0 01-.01.003c-.107.025-.328.113-.578.211-.508.2-1.13.444-1.13.31 0-.1-.094-.15-.14-.174-.017-.009-.027-.015-.027-.018.002-.007.044-.007.168-.007.313 0 1.512-.278 1.717-.325zm-.43-3.053c.422-.21-.707.13-1.228.29-.173.053-.231.07-.23.078 0 .003.017.004.041.006.073.004.218.011.247.107.044.142.438-.078.811-.287.127-.071.252-.14.359-.194zm-1.228 1.292c.521-.16 1.65-.5 1.228-.29a9.353 9.353 0 00-.359.194c-.373.209-.767.43-.81.287-.03-.095-.175-.103-.248-.107-.024-.001-.04-.002-.04-.006-.002-.007.056-.025.229-.078zm1.228-2.294c.422-.21-.707.13-1.228.29-.173.052-.231.07-.23.077 0 .004.017.005.041.006.073.004.218.012.247.107.044.143.438-.078.811-.287.127-.07.252-.14.359-.193zm-1.571-.587c.36-.11 1.138-.343.854-.175-.072.042-.155.1-.24.157-.249.171-.512.352-.556.21-.03-.096-.134-.116-.186-.126-.018-.004-.03-.006-.03-.01-.001-.007.04-.02.158-.056zm.23 3.814c-.414 0 0-.326 0-.326h.212c.073 0 .138-.03.224-.07.164-.075.402-.185.913-.185.779 0-.937.581-1.35.581z" fill="#409100"/>
  </g>
</svg>
